img/close.svg

<?xml version="1.0" encoding="UTF-8" standalone="no"?><!DOCTYPE svg PUBLIC "-//W3C//DTD SVG 1.1//EN" "http://www.w3.org/Graphics/SVG/1.1/DTD/svg11.dtd"><svg width="100%" height="100%" viewBox="0 0 10 10" version="1.1" xmlns="http://www.w3.org/2000/svg" xmlns:xlink="http://www.w3.org/1999/xlink" xml:space="preserve" xmlns:serif="http://www.serif.com/" style="fill-rule:evenodd;clip-rule:evenodd;stroke-linejoin:round;stroke-miterlimit:2;"><path id="close" d="M4.889,4.182l4.182,-4.182l0.707,0.707l-4.182,4.182l4.182,4.182l-0.707,0.707l-4.182,-4.182l-4.182,4.182l-0.707,-0.707l4.182,-4.182l-4.182,-4.182l0.707,-0.707l4.182,4.182Z" style="fill:#fff;"/></svg>

<svg xmlns="http://www.w3.org/2000/svg" viewBox="0 0 10 10"  fill-rule="evenodd" stroke-linejoin="round" stroke-miterlimit="2" xmlns:v="https://vecta.io/nano"><path d="M4.89 4.182L9.07 0l.707.707L5.596 4.89 9.778 9.07l-.707.707L4.89 5.596.707 9.778 0 9.07 4.182 4.89 0 .707.707 0 4.89 4.182z" fill="#fff"/></svg>
